X:15410
T:Sicilian Dance,The. GS.067
M:6/8
L:1/8
Q:110
S:George Spencer m/s, Leeds,1831
R:Jig
O:England
A:Leeds
N:The date 1831 is written on the stave after the final double bar line.
H:1831
Z:vmp.Cherri Graebe
K:F Major
F>GF AGF | c2cc2B | ABa c2B | A2GF2C | FGF AGF | c2cc2f | e>fe
 dc=B | c3
c3 :|!|
g2 c b2a | gfe fef | g2c b2a | gfe f2c | dbb caa | Bgg f2A | BAG c2 E |
F3 F3 |!|
A3 GFG | F2F FAc | c3 BAB | A2A A2f | (f2e) (e2d) | (d2c) (c2B) | ABc cB
A
| (A3G2) z ||!
(f3f)d=B | c2cc3 | (b3b)ge | f2ff2c | dbb caa | Bgg f2A | BAG c2E | F3F2
 ||


